dist/svgs/unicons/line/image-download.svg

<svg xmlns="http://www.w3.org/2000/svg" viewBox="0 0 24 24"><path d="M22.71 6.29a1 1 0 00-1.42 0L20 7.59V2a1 1 0 00-2 0v5.59l-1.29-1.3a1 1 0 00-1.42 1.42l3 3a1 1 0 00.33.21.94.94 0 00.76 0 1 1 0 00.33-.21l3-3a1 1 0 000-1.42zM19 13a1 1 0 00-1 1v.38l-1.48-1.48a2.79 2.79 0 00-3.93 0l-.7.7-2.48-2.48a2.85 2.85 0 00-3.93 0L4 12.6V7a1 1 0 011-1h8a1 1 0 000-2H5a3 3 0 00-3 3v12a3 3 0 003 3h12a3 3 0 003-3v-5a1 1 0 00-1-1zM5 20a1 1 0 01-1-1v-3.57l2.9-2.9a.79.79 0 011.09 0l3.17 3.17 4.3 4.3zm13-1a.89.89 0 01-.18.53L13.31 15l.7-.7a.77.77 0 011.1 0L18 17.21z"/></svg>

<svg xmlns="http://www.w3.org/2000/svg" viewBox="0 0 24 24"><path d="M22.71,6.29a1,1,0,0,0-1.42,0L20,7.59V2a1,1,0,0,0-2,0V7.59l-1.29-1.3a1,1,0,0,0-1.42,1.42l3,3a1,1,0,0,0,.33.21.94.94,0,0,0,.76,0,1,1,0,0,0,.33-.21l3-3A1,1,0,0,0,22.71,6.29ZM19,13a1,1,0,0,0-1,1v.38L16.52,12.9a2.79,2.79,0,0,0-3.93,0l-.7.7L9.41,11.12a2.85,2.85,0,0,0-3.93,0L4,12.6V7A1,1,0,0,1,5,6h8a1,1,0,0,0,0-2H5A3,3,0,0,0,2,7V19a3,3,0,0,0,3,3H17a3,3,0,0,0,3-3V14A1,1,0,0,0,19,13ZM5,20a1,1,0,0,1-1-1V15.43l2.9-2.9a.79.79,0,0,1,1.09,0l3.17,3.17,0,0L15.46,20Zm13-1a.89.89,0,0,1-.18.53L13.31,15l.7-.7a.77.77,0,0,1,1.1,0L18,17.21Z"/></svg>
